X:111
T:Grey Eagle
Z:Nigel Gatherer
M:4/4
L:1/8
K:A
cB|A2 FA ECA,C|EFAc BABc|A2 FA ECA,C|EF (3ABc e2 (3cec|
A2 FA ECA,C|EFAc (3BcB Ac|eAce dcBG|EGBd (3cec:|
AF|ecAe cAeA|fdAd fgaf|edce cecA|EGBc dBGB|
AecA ecAc|dABd faeg|abga (3faf ed|ceBc A2:|
<end>
<start>
